X:1
T:Where They Need No Sun
T:Where They Need No Sun
T:Haldor Lillenas
T:Haldor Lillenas, 1912
T:Public Domain Courtesy of the Cyber Hymnal™
T:Public Domain Courtesy of the Cyber Hymnal™
C:Haldor Lillenas
Z:Public Domain
Z:Courtesy of the Cyber Hymnal™
%%score ( 1 2 ) ( 3 4 )
L:1/8
Q:1/4=103
M:4/4
K:C
V:1 treble 
V:2 treble 
V:3 bass 
V:4 bass 
V:1
 [CE]>[DF] | [EG]>[EG] [EG]>[EG] [Ec]>[EG] [CE]>C | [B,F]>[B,F] [B,F]>[B,F] [B,F]2 | [B,D]>[CE] | %4
w: 1.~When my|earth- ly day is wan- ing and my|mor- tal robes I fold,|With the|
w: 2.~O’er the|fields of end- less glo- ry I shall|wan- der with de- light,|For with|
w: 3.~With the|count- less blood- washed mil- lions I shall|sing be- yond the skies|Praise to|
 [B,F]>[B,F] [B,F]>[B,F] [DB]>[DA] [FG]>[FA] | [EG]6 [CE]>[DF] | %6
w: dawn- ing of e- ter- ni- ty be-|gun, I shall|
w: sad- ness and with pain I shall be|done. No more|
w: God and to the Lamb for sin- ners|slain. As the|
 [EG]>[EG] [EG]>[EG] [Ec]>[EG] [CE]>C | [B,F]>[B,F] [B,F]>[B,F] [B,F]2 [B,D]>[CE] | %8
w: en- ter gates of pearl to walk on|streets of shin- ing gold, In that|
w: sor- row, no more sick- ness in that|home so pure and bright, In that|
w: sound of ma- ny wa- ters this tri-|umph- ant song shall rise And re-|
 [DF]>[^CE] [DF]>[EG] [FA]2 [FB]2 | [Ec]6 ||"^Refrain" [EG]>[EG] | %11
w: ci- ty where they need no|sun.||
w: ci- ty where they need no|sun!|In that|
w: sound through- out God’s vast do-|main.||
 [Ec]>[Ec] [Fc]>[Fc] [Ec]2 [GB]2 | A6 [FA]>[FA] | [^Fd]>[Fd] [Fd]>[Fe] [Fd]2 [FA]2 | d6 G>[FG] | %15
w: ||||
w: ci- ty where they need no|sun, When at|last my earth- ly race is|run, I shall|
w: ||||
 [Ec]>[Ec] [Ec]>[Ec] !fermata![Ge]2 [Gc]>[GB] | [FA]>[FA] [GA]>[GA] !fermata![^Fd]2 [^Dc]>[DA] | %17
w: ||
w: see my Sav- ior’s face, Rev- el|in His love and grace In that|
w: ||
 [EG]>[^D^F] [EG]>[Ec] !fermata![Ge]2 !fermata![=F=d]2 | c4 x2 |] %19
w: ||
w: ci- ty where they need no|sun.|
w: ||
V:2
 x2 | x15/2 C/ | x6 | x2 | x8 | x8 | x15/2 C/ | x8 | x8 | x6 || x2 | x8 | (F2 G2 F2) x2 | x8 | %14
 (G2 ^F2 =F2) G3/2 x/ | x8 | x8 | x8 | (E2 F2 E2) |] %19
V:3
 [C,G,]>[C,G,] | [C,C]>[C,C] [C,C]>[C,C] [C,G,]>[C,G,] [C,G,]>[E,G,] | %2
w: ~ ~|~ ~ ~ ~ ~ ~ ~ ~|
 [D,G,]>[D,G,] [D,G,]>[D,G,] [G,,G,]2 | [F,G,]>[E,G,] | %4
w: ~ ~ ~ ~ ~|~ ~|
 [E,G,]>[D,G,] [D,G,]>[D,G,] G,>G, [G,B,]>[G,B,] | [C,C]6 [C,G,]>[C,G,] | %6
w: ~ ~ ~ ~ ~ ~ ~ ~|~ ~ ~|
 [C,C]>[C,C] [C,C]>[C,C] [C,G,]>[C,G,] [C,G,]>[E,G,] | [D,G,]>[D,G,] [D,G,]>[D,G,] [G,,G,]2 G,>G, | %8
w: ~ ~ ~ ~ ~ ~ ~ ~|~ ~ ~ ~ ~ ~ ~|
 [F,A,]>[F,^G,] [F,A,]>[F,A,] [G,B,]2 G,2 | [C,G,]6 || [C,C]>[C,C] | %11
w: ~ ~ ~ ~ ~ ~|~|In that|
 [C,G,]>[C,G,] [C,A,]>[C,_A,] [C,G,]2 [E,C]2 | [F,C]2 [E,^C]2 [D,D]2 [D,D]>[D,=C] | %13
w: ci- ty where they need, they|need no sun, When at|
 [D,A,]>[D,A,] [D,A,]>[D,A,] [D,A,]2 [D,C]2 | [G,B,]2 [A,C]2 B,2 [E,B,]>[D,B,] | %15
w: last my earth- ly race, my|race is run, * *|
 [C,C]>[C,C] [C,G,]>[C,G,] !fermata![C,C]2 [E,C]>[E,C] | %16
w: |
 [F,C]>[F,C] [E,^C]>[E,C] !fermata![D,A,]2 [^F,A,]>[F,=C] | %17
w: |
 [G,C]>[A,_C] [G,C]>[G,C] !fermata![G,C]2 !fermata![G,,B,]2 | (G,2 A,2 G,2) |] %19
w: ||
V:4
 x2 | x8 | x6 | x2 | x4 G,>G, x2 | x8 | x8 | x6 G,>G, | x6 ^G,2 | x6 || x2 | x8 | x8 | x8 | %14
 x4 (G,F,) x2 | x8 | x8 | x8 | C,6 |] %19

